X:4493
T:My Cape Breton Home
O:england
M:3/4
L:1/8
C:Jerry Holland
R:Waltz
K:G
g2|"G"g3 g fg|"D"a2 f2 d2|"C"c3 c Bc|"G"d2 B2 G2|"G"g3 g fg|"D"a2 f2 d2
|
"C"c3 c Bc|"D"d2 f3 g|"G"g3 g fg|"D"a2 f2 d2|"C"c3 c Bc|"G"d2 B2 G2|
"C"E c3 cB|"D"A3 G F2|"C"G6|"G"G4:||:D2|"G"D2 G2 B2|"Am"c3 c Bc|"G"d3 B
G2|
"C"A2 G2 E2|"G"D2 G2 B2|"D"c3 c Bc|"Em"d2 g2 f2|"D"d3 c A2|
"G"D2 G2 B2|"Am"c3 c Bc|"G"d2 B2 G2|"C"A2 G2 E2|"G"D g3 fg|"D"d3 c A2|"C
"G6|"G"G4:||


